X:143
T:Reel 143
M:4/4
K:Gmaj
L:1/8
dc|BGAG DGFG|A>A (3AGA e2fg||c>A (3BAG e>A (3AGF |A>A (3AAA f2dc||BGAG e>G (3GGG |BcAc BGG2|c>A (3AGA B>A (3AAA |c>A (3AAA e>A (3AAA ||BcBc BcBG| (3BAG BG AGG2:||2GcBA GABG|A>D (3DED A2Ac| (3BcB AG AGED| (3ABA G>E  (3AAA AG|A>D (3DDD A2Ac| (3Bcd AG FAcA:||: (3Bcd ef  (3ggg g2| (3Bcd eB BAA2| (3BcB g2 fddd| (3ABA =fd c2Ac:|
